img/sans-serif.svg

<svg fill="none" height="60" viewBox="0 0 194 60" width="194" xmlns="http://www.w3.org/2000/svg"><g fill="#000"><path d="m7.04004 33.52c0 .96.17333 1.7733.51999 2.44.34667.6667.8 1.2133 1.36 1.64.58667.4 1.26667.7067 2.03997.92.7734.1867 1.5734.28 2.4.28.56 0 1.16-.04 1.8-.12.64-.1067 1.24-.2933 1.8-.56s1.0267-.6267 1.4-1.08c.3734-.48.56-1.08.56-1.8 0-.7733-.2533-1.4-.76-1.88-.48-.48-1.12-.88-1.92-1.2s-1.7066-.6-2.72-.84c-1.0133-.24-2.04-.5067-3.08-.8-1.06663-.2667-2.10663-.5867-3.11997-.96-1.01333-.4-1.92-.9067-2.72-1.52s-1.45333-1.3733-1.96-2.28c-.48-.9333-.72-2.0533-.72-3.36 0-1.4667.30667-2.7333.92-3.8.64-1.0933 1.46667-2 2.48-2.72 1.01334-.72 2.16-1.2533 3.44001-1.6 1.27996-.3467 2.55996-.52 3.83996-.52 1.4934 0 2.92.1733 4.28.52 1.3867.32 2.6134.8533 3.68 1.6 1.0667.7467 1.9067 1.7067 2.52 2.88.64 1.1467.96 2.5467.96 4.2h-6.08c-.0533-.8533-.24-1.56-.56-2.12-.2933-.56-.6933-1-1.2-1.32-.5066-.32-1.0933-.5467-1.76-.68-.64-.1333-1.3466-.2-2.12-.2-.5066 0-1.0133.0533-1.52.16-.5066.1067-.9733.2933-1.39997.56-.39999.2667-.73333.6-1 1-.26666.4-.4.9067-.4 1.52 0 .56.10667 1.0133.32 1.36.21334.3467.62667.6667 1.24.96.63997.2933 1.50667.5867 2.59997.88 1.12.2933 2.5734.6667 4.36 1.12.5334.1067 1.2667.3067 2.2.6.96.2667 1.9067.7067 2.84 1.32.9334.6133 1.7334 1.44 2.4 2.48.6934 1.0133 1.04 2.32 1.04 3.92 0 1.3067-.2533 2.52-.76 3.64-.5066 1.12-1.2666 2.0933-2.28 2.92-.9866.8-2.2266 1.4267-3.72 1.88-1.4666.4533-3.1733.68-5.12.68-1.5733 0-3.1066-.2-4.59996-.6-1.46667-.3733-2.77334-.9733-3.92001-1.8-1.12-.8267-2.01333-1.88-2.68-3.16-.66666-1.28-.986662-2.8-.959995-4.56z"/><path d="m27.8966 28.68c.08-1.3333.4133-2.44 1-3.32s1.3333-1.5867 2.24-2.12 1.92-.9067 3.04-1.12c1.1467-.24 2.2933-.36 3.44-.36 1.04 0 2.0933.08 3.16.24 1.0667.1333 2.04.4133 2.92.84s1.6 1.0267 2.16 1.8c.56.7467.84 1.7467.84 3v10.76c0 .9333.0533 1.8267.16 2.68s.2933 1.4933.56 1.92h-5.76c-.1067-.32-.2-.64-.28-.96-.0533-.3467-.0933-.6933-.12-1.04-.9067.9333-1.9733 1.5867-3.2 1.96s-2.48.56-3.76.56c-.9867 0-1.9067-.12-2.76-.36s-1.6-.6133-2.24-1.12-1.1467-1.1467-1.52-1.92c-.3467-.7733-.52-1.6933-.52-2.76 0-1.1733.2-2.1333.6-2.88.4267-.7733.96-1.3867 1.6-1.84.6667-.4533 1.4133-.7867 2.24-1 .8533-.24 1.7067-.4267 2.56-.56s1.6933-.24 2.52-.32 1.56-.2 2.2-.36 1.1467-.3867 1.52-.68c.3733-.32.5467-.7733.52-1.36 0-.6133-.1067-1.0933-.32-1.44-.1867-.3733-.4533-.6533-.8-.84-.32-.2133-.7067-.3467-1.16-.4-.4267-.08-.8933-.12-1.4-.12-1.12 0-2 .24-2.64.72s-1.0133 1.28-1.12 2.4zm13.12 4.2c-.24.2133-.5467.3867-.92.52-.3467.1067-.7333.2-1.16.28-.4.08-.8267.1467-1.28.2s-.9067.12-1.36.2c-.4267.08-.8533.1867-1.28.32-.4.1333-.76.32-1.08.56-.2933.2133-.5333.4933-.72.84s-.28.7867-.28 1.32c0 .5067.0933.9333.28 1.28s.44.6267.76.84c.32.1867.6933.32 1.12.4s.8667.12 1.32.12c1.12 0 1.9867-.1867 2.6-.56s1.0667-.8133 1.36-1.32c.2933-.5333.4667-1.0667.52-1.6.08-.5333.12-.96.12-1.28z"/><path d="m51.1053 22.32h5.4v2.88h.12c.72-1.2 1.6534-2.0667 2.8-2.6 1.1467-.56 2.32-.84 3.52-.84 1.52 0 2.76.2133 3.72.64.9867.4 1.7601.9733 2.3201 1.72.5599.72.9466 1.6133 1.1599 2.68.24 1.04.36 2.2.36 3.48v12.72h-5.68v-11.68c0-1.7067-.2666-2.9733-.8-3.8-.5333-.8533-1.48-1.28-2.84-1.28-1.5466 0-2.6666.4667-3.36 1.4-.6933.9067-1.04 2.4133-1.04 4.52v10.84h-5.68z"/><path d="m79.2163 36.28c0 .6133.12 1.1467.36 1.6.2667.4267.6.7867 1 1.08.4.2667.8533.4667 1.36.6.5333.1333 1.08.2 1.64.2.4 0 .8133-.04 1.24-.12.4533-.1067.8533-.2533 1.2-.44.3733-.2133.68-.48.92-.8.24-.3467.36-.7733.36-1.28 0-.8533-.5733-1.4933-1.72-1.92-1.12-.4267-2.6934-.8533-4.72-1.28-.8267-.1867-1.64-.4-2.44-.64-.7733-.2667-1.4667-.6-2.08-1-.6133-.4267-1.1067-.9467-1.48-1.56-.3734-.64-.56-1.4133-.56-2.32 0-1.3333.2533-2.4267.76-3.28.5333-.8533 1.2267-1.52 2.08-2 .8533-.5067 1.8133-.8533 2.88-1.04 1.0667-.2133 2.16-.32 3.28-.32s2.2.1067 3.24.32c1.0667.2133 2.0133.5733 2.84 1.08.8266.5067 1.5066 1.1867 2.04 2.04.56.8267.8933 1.88 1 3.16h-5.4c-.08-1.0933-.4934-1.8267-1.24-2.2-.7467-.4-1.6267-.6-2.64-.6-.32 0-.6667.0267-1.04.08-.3734.0267-.72.1067-1.04.24-.2934.1333-.5467.3333-.76.6-.2133.24-.32.5733-.32 1 0 .5067.1866.92.56 1.24.3733.32.8533.5867 1.44.8.6133.1867 1.3067.36 2.08.52s1.56.3333 2.36.52c.8267.1867 1.6267.4133 2.4.68.8.2667 1.5067.6267 2.12 1.08.6133.4267 1.1066.9733 1.48 1.64.3733.64.56 1.44.56 2.4 0 1.36-.28 2.5067-.84 3.44-.5333.9067-1.24 1.64-2.12 2.2s-1.8933.9467-3.04 1.16c-1.12.24-2.2667.36-3.44.36-1.2 0-2.3733-.12-3.52-.36s-2.1733-.64-3.08-1.2c-.88-.56-1.6133-1.2933-2.2-2.2-.56-.9333-.8667-2.0933-.92-3.48z"/><path d="m112.313 33.52c0 .96.174 1.7733.52 2.44.347.6667.8 1.2133 1.36 1.64.587.4 1.267.7067 2.04.92.774.1867 1.574.28 2.4.28.56 0 1.16-.04 1.8-.12.64-.1067 1.24-.2933 1.8-.56s1.027-.6267 1.4-1.08c.374-.48.56-1.08.56-1.8 0-.7733-.253-1.4-.76-1.88-.48-.48-1.12-.88-1.92-1.2s-1.706-.6-2.72-.84c-1.013-.24-2.04-.5067-3.08-.8-1.066-.2667-2.106-.5867-3.12-.96-1.013-.4-1.92-.9067-2.72-1.52s-1.453-1.3733-1.96-2.28c-.48-.9333-.72-2.0533-.72-3.36 0-1.4667.307-2.7333.92-3.8.64-1.0933 1.467-2 2.48-2.72 1.014-.72 2.16-1.2533 3.44-1.6s2.56-.52 3.84-.52c1.494 0 2.92.1733 4.28.52 1.387.32 2.614.8533 3.68 1.6 1.067.7467 1.907 1.7067 2.52 2.88.64 1.1467.96 2.5467.96 4.2h-6.08c-.053-.8533-.24-1.56-.56-2.12-.293-.56-.693-1-1.2-1.32-.506-.32-1.093-.5467-1.76-.68-.64-.1333-1.346-.2-2.12-.2-.506 0-1.013.0533-1.52.16-.506.1067-.973.2933-1.4.56-.4.2667-.733.6-1 1-.266.4-.4.9067-.4 1.52 0 .56.107 1.0133.32 1.36.214.3467.627.6667 1.24.96.64.2933 1.507.5867 2.6.88 1.12.2933 2.574.6667 4.36 1.12.534.1067 1.267.3067 2.2.6.96.2667 1.907.7067 2.84 1.32.934.6133 1.734 1.44 2.4 2.48.694 1.0133 1.04 2.32 1.04 3.92 0 1.3067-.253 2.52-.76 3.64-.506 1.12-1.266 2.0933-2.28 2.92-.986.8-2.226 1.4267-3.72 1.88-1.466.4533-3.173.68-5.12.68-1.573 0-3.106-.2-4.6-.6-1.466-.3733-2.773-.9733-3.92-1.8-1.12-.8267-2.013-1.88-2.68-3.16-.666-1.28-.986-2.8-.96-4.56z"/><path d="m147.33 30.44c-.267-1.44-.747-2.5333-1.44-3.28-.667-.7467-1.693-1.12-3.08-1.12-.907 0-1.667.16-2.28.48-.587.2933-1.067.6667-1.44 1.12-.347.4533-.6.9333-.76 1.44-.133.5067-.213.96-.24 1.36zm-9.24 3.6c.08 1.84.547 3.1733 1.4 4s2.08 1.24 3.68 1.24c1.147 0 2.133-.28 2.96-.84.827-.5867 1.333-1.2 1.52-1.84h5c-.8 2.48-2.027 4.2533-3.68 5.32s-3.653 1.6-6 1.6c-1.627 0-3.093-.2533-4.4-.76-1.307-.5333-2.413-1.28-3.32-2.24s-1.613-2.1067-2.12-3.44c-.48-1.3333-.72-2.8-.72-4.4 0-1.5467.253-2.9867.76-4.32s1.227-2.48 2.16-3.44c.933-.9867 2.04-1.76 3.32-2.32 1.307-.56 2.747-.84 4.32-.84 1.76 0 3.293.3467 4.6 1.04 1.307.6667 2.373 1.5733 3.2 2.72.853 1.1467 1.467 2.4533 1.84 3.92s.507 3 .4 4.6z"/><path d="m156.379 22.32h5.4v3.84h.08c.266-.64.626-1.2267 1.08-1.76.453-.56.973-1.0267 1.56-1.4.586-.4 1.213-.7067 1.88-.92.666-.2133 1.36-.32 2.08-.32.373 0 .786.0667 1.24.2v5.28c-.267-.0533-.587-.0933-.96-.12-.374-.0533-.734-.08-1.08-.08-1.04 0-1.92.1733-2.64.52s-1.307.8267-1.76 1.44c-.427.5867-.734 1.28-.92 2.08-.187.8-.28 1.6667-.28 2.6v9.32h-5.68z"/><path d="m177.766 19.12h-5.68v-4.68h5.68zm-5.68 3.2h5.68v20.68h-5.68z"/><path d="m183.478 26.12h-3.4v-3.8h3.4v-1.6c0-1.84.573-3.3467 1.72-4.52s2.88-1.76 5.2-1.76c.507 0 1.013.0267 1.52.08.507.0267 1 .0533 1.48.08v4.24c-.667-.08-1.36-.12-2.08-.12-.773 0-1.333.1867-1.68.56-.32.3467-.48.9467-.48 1.8v1.24h3.92v3.8h-3.92v16.88h-5.68z"/></g></svg>

<svg width="194" height="60" viewBox="0 0 194 60" fill="none" xmlns="http://www.w3.org/2000/svg">
<path d="M7.04004 33.52C7.04004 34.48 7.21337 35.2933 7.56003 35.96C7.9067 36.6267 8.36003 37.1733 8.92003 37.6C9.5067 38 10.1867 38.3067 10.96 38.52C11.7334 38.7067 12.5334 38.8 13.36 38.8C13.92 38.8 14.52 38.76 15.16 38.68C15.8 38.5733 16.4 38.3867 16.96 38.12C17.52 37.8533 17.9867 37.4933 18.36 37.04C18.7334 36.56 18.92 35.96 18.92 35.24C18.92 34.4667 18.6667 33.84 18.16 33.36C17.68 32.88 17.04 32.48 16.24 32.16C15.44 31.84 14.5334 31.56 13.52 31.32C12.5067 31.08 11.48 30.8133 10.44 30.52C9.37337 30.2533 8.33337 29.9333 7.32003 29.56C6.3067 29.16 5.40003 28.6533 4.60003 28.04C3.80003 27.4267 3.1467 26.6667 2.64003 25.76C2.16003 24.8267 1.92003 23.7067 1.92003 22.4C1.92003 20.9333 2.2267 19.6667 2.84003 18.6C3.48003 17.5067 4.3067 16.6 5.32003 15.88C6.33337 15.16 7.48003 14.6267 8.76004 14.28C10.04 13.9333 11.32 13.76 12.6 13.76C14.0934 13.76 15.52 13.9333 16.88 14.28C18.2667 14.6 19.4934 15.1333 20.56 15.88C21.6267 16.6267 22.4667 17.5867 23.08 18.76C23.72 19.9067 24.04 21.3067 24.04 22.96H17.96C17.9067 22.1067 17.72 21.4 17.4 20.84C17.1067 20.28 16.7067 19.84 16.2 19.52C15.6934 19.2 15.1067 18.9733 14.44 18.84C13.8 18.7067 13.0934 18.64 12.32 18.64C11.8134 18.64 11.3067 18.6933 10.8 18.8C10.2934 18.9067 9.8267 19.0933 9.40003 19.36C9.00004 19.6267 8.6667 19.96 8.40003 20.36C8.13337 20.76 8.00003 21.2667 8.00003 21.88C8.00003 22.44 8.1067 22.8933 8.32003 23.24C8.53337 23.5867 8.9467 23.9067 9.56003 24.2C10.2 24.4933 11.0667 24.7867 12.16 25.08C13.28 25.3733 14.7334 25.7467 16.52 26.2C17.0534 26.3067 17.7867 26.5067 18.72 26.8C19.68 27.0667 20.6267 27.5067 21.56 28.12C22.4934 28.7333 23.2934 29.56 23.96 30.6C24.6534 31.6133 25 32.92 25 34.52C25 35.8267 24.7467 37.04 24.24 38.16C23.7334 39.28 22.9734 40.2533 21.96 41.08C20.9734 41.88 19.7334 42.5067 18.24 42.96C16.7734 43.4133 15.0667 43.64 13.12 43.64C11.5467 43.64 10.0134 43.44 8.52004 43.04C7.05337 42.6667 5.7467 42.0667 4.60003 41.24C3.48003 40.4133 2.5867 39.36 1.92003 38.08C1.25337 36.8 0.933368 35.28 0.960035 33.52H7.04004Z" fill="black"/>
<path d="M27.8966 28.68C27.9766 27.3467 28.3099 26.24 28.8966 25.36C29.4833 24.48 30.2299 23.7733 31.1366 23.24C32.0433 22.7067 33.0566 22.3333 34.1766 22.12C35.3233 21.88 36.4699 21.76 37.6166 21.76C38.6566 21.76 39.7099 21.84 40.7766 22C41.8433 22.1333 42.8166 22.4133 43.6966 22.84C44.5766 23.2667 45.2966 23.8667 45.8566 24.64C46.4166 25.3867 46.6966 26.3867 46.6966 27.64V38.4C46.6966 39.3333 46.7499 40.2267 46.8566 41.08C46.9633 41.9333 47.1499 42.5733 47.4166 43H41.6566C41.5499 42.68 41.4566 42.36 41.3766 42.04C41.3233 41.6933 41.2833 41.3467 41.2566 41C40.3499 41.9333 39.2833 42.5867 38.0566 42.96C36.8299 43.3333 35.5766 43.52 34.2966 43.52C33.3099 43.52 32.3899 43.4 31.5366 43.16C30.6833 42.92 29.9366 42.5467 29.2966 42.04C28.6566 41.5333 28.1499 40.8933 27.7766 40.12C27.4299 39.3467 27.2566 38.4267 27.2566 37.36C27.2566 36.1867 27.4566 35.2267 27.8566 34.48C28.2833 33.7067 28.8166 33.0933 29.4566 32.64C30.1233 32.1867 30.8699 31.8533 31.6966 31.64C32.5499 31.4 33.4033 31.2133 34.2566 31.08C35.1099 30.9467 35.9499 30.84 36.7766 30.76C37.6033 30.68 38.3366 30.56 38.9766 30.4C39.6166 30.24 40.1233 30.0133 40.4966 29.72C40.8699 29.4 41.0433 28.9467 41.0166 28.36C41.0166 27.7467 40.9099 27.2667 40.6966 26.92C40.5099 26.5467 40.2433 26.2667 39.8966 26.08C39.5766 25.8667 39.1899 25.7333 38.7366 25.68C38.3099 25.6 37.8433 25.56 37.3366 25.56C36.2166 25.56 35.3366 25.8 34.6966 26.28C34.0566 26.76 33.6833 27.56 33.5766 28.68H27.8966ZM41.0166 32.88C40.7766 33.0933 40.4699 33.2667 40.0966 33.4C39.7499 33.5067 39.3633 33.6 38.9366 33.68C38.5366 33.76 38.1099 33.8267 37.6566 33.88C37.2033 33.9333 36.7499 34 36.2966 34.08C35.8699 34.16 35.4433 34.2667 35.0166 34.4C34.6166 34.5333 34.2566 34.72 33.9366 34.96C33.6433 35.1733 33.4033 35.4533 33.2166 35.8C33.0299 36.1467 32.9366 36.5867 32.9366 37.12C32.9366 37.6267 33.0299 38.0533 33.2166 38.4C33.4033 38.7467 33.6566 39.0267 33.9766 39.24C34.2966 39.4267 34.6699 39.56 35.0966 39.64C35.5233 39.72 35.9633 39.76 36.4166 39.76C37.5366 39.76 38.4033 39.5733 39.0166 39.2C39.6299 38.8267 40.0833 38.3867 40.3766 37.88C40.6699 37.3467 40.8433 36.8133 40.8966 36.28C40.9766 35.7467 41.0166 35.32 41.0166 35V32.88Z" fill="black"/>
<path d="M51.1053 22.32H56.5053V25.2H56.6253C57.3453 24 58.2787 23.1333 59.4253 22.6C60.572 22.04 61.7453 21.76 62.9453 21.76C64.4653 21.76 65.7053 21.9733 66.6653 22.4C67.652 22.8 68.4254 23.3733 68.9854 24.12C69.5453 24.84 69.932 25.7333 70.1453 26.8C70.3853 27.84 70.5053 29 70.5053 30.28V43H64.8253V31.32C64.8253 29.6133 64.5587 28.3467 64.0253 27.52C63.492 26.6667 62.5453 26.24 61.1853 26.24C59.6387 26.24 58.5187 26.7067 57.8253 27.64C57.132 28.5467 56.7853 30.0533 56.7853 32.16V43H51.1053V22.32Z" fill="black"/>
<path d="M79.2163 36.28C79.2163 36.8933 79.3363 37.4267 79.5763 37.88C79.843 38.3067 80.1763 38.6667 80.5763 38.96C80.9763 39.2267 81.4296 39.4267 81.9363 39.56C82.4696 39.6933 83.0163 39.76 83.5763 39.76C83.9763 39.76 84.3896 39.72 84.8163 39.64C85.2696 39.5333 85.6696 39.3867 86.0163 39.2C86.3896 38.9867 86.6963 38.72 86.9363 38.4C87.1763 38.0533 87.2963 37.6267 87.2963 37.12C87.2963 36.2667 86.723 35.6267 85.5763 35.2C84.4563 34.7733 82.8829 34.3467 80.8563 33.92C80.0296 33.7333 79.2163 33.52 78.4163 33.28C77.643 33.0133 76.9496 32.68 76.3363 32.28C75.723 31.8533 75.2296 31.3333 74.8563 30.72C74.4829 30.08 74.2963 29.3067 74.2963 28.4C74.2963 27.0667 74.5496 25.9733 75.0563 25.12C75.5896 24.2667 76.283 23.6 77.1363 23.12C77.9896 22.6133 78.9496 22.2667 80.0163 22.08C81.083 21.8667 82.1763 21.76 83.2963 21.76C84.4163 21.76 85.4963 21.8667 86.5363 22.08C87.603 22.2933 88.5496 22.6533 89.3763 23.16C90.2029 23.6667 90.8829 24.3467 91.4163 25.2C91.9763 26.0267 92.3096 27.08 92.4163 28.36H87.0163C86.9363 27.2667 86.5229 26.5333 85.7763 26.16C85.0296 25.76 84.1496 25.56 83.1363 25.56C82.8163 25.56 82.4696 25.5867 82.0963 25.64C81.7229 25.6667 81.3763 25.7467 81.0563 25.88C80.7629 26.0133 80.5096 26.2133 80.2963 26.48C80.083 26.72 79.9763 27.0533 79.9763 27.48C79.9763 27.9867 80.1629 28.4 80.5363 28.72C80.9096 29.04 81.3896 29.3067 81.9763 29.52C82.5896 29.7067 83.283 29.88 84.0563 30.04C84.8296 30.2 85.6163 30.3733 86.4163 30.56C87.243 30.7467 88.043 30.9733 88.8163 31.24C89.6163 31.5067 90.323 31.8667 90.9363 32.32C91.5496 32.7467 92.0429 33.2933 92.4163 33.96C92.7896 34.6 92.9763 35.4 92.9763 36.36C92.9763 37.72 92.6963 38.8667 92.1363 39.8C91.603 40.7067 90.8963 41.44 90.0163 42C89.1363 42.56 88.123 42.9467 86.9763 43.16C85.8563 43.4 84.7096 43.52 83.5363 43.52C82.3363 43.52 81.163 43.4 80.0163 43.16C78.8696 42.92 77.843 42.52 76.9363 41.96C76.0563 41.4 75.323 40.6667 74.7363 39.76C74.1763 38.8267 73.8696 37.6667 73.8163 36.28H79.2163Z" fill="black"/>
<path d="M112.313 33.52C112.313 34.48 112.487 35.2933 112.833 35.96C113.18 36.6267 113.633 37.1733 114.193 37.6C114.78 38 115.46 38.3067 116.233 38.52C117.007 38.7067 117.807 38.8 118.633 38.8C119.193 38.8 119.793 38.76 120.433 38.68C121.073 38.5733 121.673 38.3867 122.233 38.12C122.793 37.8533 123.26 37.4933 123.633 37.04C124.007 36.56 124.193 35.96 124.193 35.24C124.193 34.4667 123.94 33.84 123.433 33.36C122.953 32.88 122.313 32.48 121.513 32.16C120.713 31.84 119.807 31.56 118.793 31.32C117.78 31.08 116.753 30.8133 115.713 30.52C114.647 30.2533 113.607 29.9333 112.593 29.56C111.58 29.16 110.673 28.6533 109.873 28.04C109.073 27.4267 108.42 26.6667 107.913 25.76C107.433 24.8267 107.193 23.7067 107.193 22.4C107.193 20.9333 107.5 19.6667 108.113 18.6C108.753 17.5067 109.58 16.6 110.593 15.88C111.607 15.16 112.753 14.6267 114.033 14.28C115.313 13.9333 116.593 13.76 117.873 13.76C119.367 13.76 120.793 13.9333 122.153 14.28C123.54 14.6 124.767 15.1333 125.833 15.88C126.9 16.6267 127.74 17.5867 128.353 18.76C128.993 19.9067 129.313 21.3067 129.313 22.96H123.233C123.18 22.1067 122.993 21.4 122.673 20.84C122.38 20.28 121.98 19.84 121.473 19.52C120.967 19.2 120.38 18.9733 119.713 18.84C119.073 18.7067 118.367 18.64 117.593 18.64C117.087 18.64 116.58 18.6933 116.073 18.8C115.567 18.9067 115.1 19.0933 114.673 19.36C114.273 19.6267 113.94 19.96 113.673 20.36C113.407 20.76 113.273 21.2667 113.273 21.88C113.273 22.44 113.38 22.8933 113.593 23.24C113.807 23.5867 114.22 23.9067 114.833 24.2C115.473 24.4933 116.34 24.7867 117.433 25.08C118.553 25.3733 120.007 25.7467 121.793 26.2C122.327 26.3067 123.06 26.5067 123.993 26.8C124.953 27.0667 125.9 27.5067 126.833 28.12C127.767 28.7333 128.567 29.56 129.233 30.6C129.927 31.6133 130.273 32.92 130.273 34.52C130.273 35.8267 130.02 37.04 129.513 38.16C129.007 39.28 128.247 40.2533 127.233 41.08C126.247 41.88 125.007 42.5067 123.513 42.96C122.047 43.4133 120.34 43.64 118.393 43.64C116.82 43.64 115.287 43.44 113.793 43.04C112.327 42.6667 111.02 42.0667 109.873 41.24C108.753 40.4133 107.86 39.36 107.193 38.08C106.527 36.8 106.207 35.28 106.233 33.52H112.313Z" fill="black"/>
<path d="M147.33 30.44C147.063 29 146.583 27.9067 145.89 27.16C145.223 26.4133 144.197 26.04 142.81 26.04C141.903 26.04 141.143 26.2 140.53 26.52C139.943 26.8133 139.463 27.1867 139.09 27.64C138.743 28.0933 138.49 28.5733 138.33 29.08C138.197 29.5867 138.117 30.04 138.09 30.44H147.33ZM138.09 34.04C138.17 35.88 138.637 37.2133 139.49 38.04C140.343 38.8667 141.57 39.28 143.17 39.28C144.317 39.28 145.303 39 146.13 38.44C146.957 37.8533 147.463 37.24 147.65 36.6H152.65C151.85 39.08 150.623 40.8533 148.97 41.92C147.317 42.9867 145.317 43.52 142.97 43.52C141.343 43.52 139.877 43.2667 138.57 42.76C137.263 42.2267 136.157 41.48 135.25 40.52C134.343 39.56 133.637 38.4133 133.13 37.08C132.65 35.7467 132.41 34.28 132.41 32.68C132.41 31.1333 132.663 29.6933 133.17 28.36C133.677 27.0267 134.397 25.88 135.33 24.92C136.263 23.9333 137.37 23.16 138.65 22.6C139.957 22.04 141.397 21.76 142.97 21.76C144.73 21.76 146.263 22.1067 147.57 22.8C148.877 23.4667 149.943 24.3733 150.77 25.52C151.623 26.6667 152.237 27.9733 152.61 29.44C152.983 30.9067 153.117 32.44 153.01 34.04H138.09Z" fill="black"/>
<path d="M156.379 22.32H161.779V26.16H161.859C162.125 25.52 162.485 24.9333 162.939 24.4C163.392 23.84 163.912 23.3733 164.499 23C165.085 22.6 165.712 22.2933 166.379 22.08C167.045 21.8667 167.739 21.76 168.459 21.76C168.832 21.76 169.245 21.8267 169.699 21.96V27.24C169.432 27.1867 169.112 27.1467 168.739 27.12C168.365 27.0667 168.005 27.04 167.659 27.04C166.619 27.04 165.739 27.2133 165.019 27.56C164.299 27.9067 163.712 28.3867 163.259 29C162.832 29.5867 162.525 30.28 162.339 31.08C162.152 31.88 162.059 32.7467 162.059 33.68V43H156.379V22.32Z" fill="black"/>
<path d="M177.766 19.12H172.086V14.44H177.766V19.12ZM172.086 22.32H177.766V43H172.086V22.32Z" fill="black"/>
<path d="M183.478 26.12H180.078V22.32H183.478V20.72C183.478 18.88 184.051 17.3733 185.198 16.2C186.345 15.0267 188.078 14.44 190.398 14.44C190.905 14.44 191.411 14.4667 191.918 14.52C192.425 14.5467 192.918 14.5733 193.398 14.6V18.84C192.731 18.76 192.038 18.72 191.318 18.72C190.545 18.72 189.985 18.9067 189.638 19.28C189.318 19.6267 189.158 20.2267 189.158 21.08V22.32H193.078V26.12H189.158V43H183.478V26.12Z" fill="black"/>
</svg>
